src/assets/icons/export.svg

<svg viewBox="0 0 24 24" xmlns="http://www.w3.org/2000/svg" fill="none">
  <path d="M13.5 3H12H7C5.89543 3 5 3.89543 5 5V19C5 20.1046 5.89543 21 7 21H7.5M13.5 3L19 8.625M13.5 3V7.625C13.5 8.17728 13.9477 8.625 14.5 8.625H19M19 8.625V9.75V12V19C19 20.1046 18.1046 21 17 21H16.5" stroke="currentColor" stroke-width="2" stroke-linecap="round" stroke-linejoin="round" />
  <path d="M12 12V20M12 20L9.5 17.5M12 20L14.5 17.5" stroke="currentColor" stroke-width="2" stroke-linecap="round" stroke-linejoin="round" />
</svg>

<svg xmlns="http://www.w3.org/2000/svg" fill="none" viewBox="0 0 24 24"><path stroke="currentColor" stroke-linecap="round" stroke-linejoin="round" stroke-width="2" d="M13.5 3H7a2 2 0 0 0-2 2v14a2 2 0 0 0 2 2h.5m6-18L19 8.625M13.5 3v4.625a1 1 0 0 0 1 1H19m0 0V19a2 2 0 0 1-2 2h-.5M12 12v8m0 0-2.5-2.5M12 20l2.5-2.5"/></svg>
